X: 2003
T: The Gypsies
N: Pub: J. Walsh, London, 1748
Z: 2012 John Chambers <jc:trillian.mit.edu>
N: The 2nd part has an open repeat but not a final repeat.
M: 6/8
L: 1/8
K: Bb
V: 1
f |\
d>cB b>ag | fdB F2E | DFB d/e/fd | ccc c2f |\
d>cB b>ag | fdB F2E | DFB edc | BBB B2 :||:
c |\
Acf edc | Bdf bag | fdf g/a/ba | ggg g2a |\
bfd g/a/bg | fdB G2B | FDF edc | BBB B2 |]
V: 2 clef=bass middle=d
f |\
b2B d2e | d3- d2c | B3  b3  | f3 a3 |\
b2B d2e | d3- d2c | B2d f2F | b3 B2 :||:
z |\
f3 a3 | b3 d2e | d3 D3 | G2g f2e |\
d3 e3 | B3 e3 | f3 F3 | B3 b2 |]
%%begintext align
First Cu. cast off, 1st Man turns the 3d Wo. with his Right hand, 1st Wo. turn ye
2d Man at the same time with her Right hand .| 1st Cu. keep the contrary side,
lead thro' the 3rd Cu. and cross over up to the top :| 1st and 2d Cu. Hands quite
round, 1st Cu. cast off .| turn the other corner with your Right hand & turn your
Partner with your Left hand.
%%endtext

%%sep 1 1 500
%%sep 1 1 500

